static/img/icons/dociconred.svg

<svg fill="none" viewBox=".76 .2 10 13" xmlns="http://www.w3.org/2000/svg" xmlns:xlink="http://www.w3.org/1999/xlink"><clipPath id="a"><path d="m.764648.203857h10v13h-10z"/></clipPath><g clip-path="url(#a)"><path clip-rule="evenodd" d="m1.52927 2.24451c0-.39783.15803-.77936.43934-1.06066.2813-.281307.66283-.439343 1.06066-.439343h3.4395c.39779.000085.77926.158176 1.0605.439503l2.56053 2.5605c.2813.28124.4394.66271.4395 1.0605v6.43949c0 .3979-.1581.7794-.4394 1.0607-.28128.2813-.66281.4393-1.06063.4393h-6c-.39783 0-.77936-.158-1.06066-.4393-.28131-.2813-.43934-.6628-.43934-1.0607zm1.5 4.5c0-.19891.07902-.38968.21967-.53033s.33142-.21967.53033-.21967h4.5c.19891 0 .38968.07902.53033.21967s.21967.33142.21967.53033-.07902.38968-.21967.53033-.33142.21967-.53033.21967h-4.5c-.19891 0-.38968-.07902-.53033-.21967s-.21967-.33142-.21967-.53033zm.75 2.25c-.19891 0-.38968.07902-.53033.21967s-.21967.33142-.21967.53033.07902.38969.21967.53039c.14065.1406.33142.2196.53033.2196h4.5c.19891 0 .38968-.079.53033-.2196.14065-.1407.21967-.33148.21967-.53039s-.07902-.38968-.21967-.53033-.33142-.21967-.53033-.21967z" fill="#e35851" fill-rule="evenodd"/></g></svg>

<svg width="11" height="14" viewBox="0 0 11 14" fill="none" xmlns="http://www.w3.org/2000/svg">
<g clip-path="url(#clip0_227_10)">
<path fill-rule="evenodd" clip-rule="evenodd" d="M1.52927 2.24451C1.52927 1.84668 1.6873 1.46515 1.96861 1.18385C2.24991 0.902543 2.63144 0.744507 3.02927 0.744507H6.46877C6.86656 0.744592 7.24803 0.902683 7.52927 1.18401L10.0898 3.74451C10.3711 4.02575 10.5292 4.40722 10.5293 4.80501V11.2445C10.5293 11.6424 10.3712 12.0239 10.0899 12.3052C9.80862 12.5865 9.42709 12.7445 9.02927 12.7445H3.02927C2.63144 12.7445 2.24991 12.5865 1.96861 12.3052C1.6873 12.0239 1.52927 11.6424 1.52927 11.2445V2.24451ZM3.02927 6.74451C3.02927 6.5456 3.10829 6.35483 3.24894 6.21418C3.38959 6.07353 3.58036 5.99451 3.77927 5.99451H8.27927C8.47818 5.99451 8.66895 6.07353 8.8096 6.21418C8.95025 6.35483 9.02927 6.5456 9.02927 6.74451C9.02927 6.94342 8.95025 7.13419 8.8096 7.27484C8.66895 7.41549 8.47818 7.49451 8.27927 7.49451H3.77927C3.58036 7.49451 3.38959 7.41549 3.24894 7.27484C3.10829 7.13419 3.02927 6.94342 3.02927 6.74451ZM3.77927 8.99451C3.58036 8.99451 3.38959 9.07353 3.24894 9.21418C3.10829 9.35483 3.02927 9.5456 3.02927 9.74451C3.02927 9.94342 3.10829 10.1342 3.24894 10.2749C3.38959 10.4155 3.58036 10.4945 3.77927 10.4945H8.27927C8.47818 10.4945 8.66895 10.4155 8.8096 10.2749C8.95025 10.1342 9.02927 9.94342 9.02927 9.74451C9.02927 9.5456 8.95025 9.35483 8.8096 9.21418C8.66895 9.07353 8.47818 8.99451 8.27927 8.99451H3.77927Z" fill="#E35851"/>
</g>
<defs>
<clipPath id="clip0_227_10">
<rect width="10" height="13" fill="white" transform="translate(0.764648 0.203857)"/>
</clipPath>
</defs>
</svg>
